flaticon/security/lockpick.svg

<svg xmlns="http://www.w3.org/2000/svg" width="32" height="32" viewBox="0 0 24 24">
    <path d="M14.425781 5.289062C13.585938 4.578125 12.46875 4.269531 11.367188 4.453125 9.890625 4.695312 8.679688 5.839844 8.347656 7.304688 8.0625 8.5625 8.433594 9.859375 9.347656 10.777344 9.496094 11.117188 9.648438 12.863281 9.710938 13.617188 9.753906 14.09375 9.773438 14.347656 9.792969 14.4375L10.210938 19.078125C10.304688 19.609375 10.765625 20 11.308594 20L12.691406 20C13.234375 20 13.695312 19.609375 13.792969 19.042969L14.210938 14.441406C14.230469 14.324219 14.25 14.070312 14.289062 13.59375 14.351562 12.851562 14.496094 11.128906 14.644531 10.785156 15.355469 10.074219 15.75 9.140625 15.75 8.148438 15.75 7.046875 15.265625 6.003906 14.425781 5.289062zM14.054688 10.242188C13.808594 10.488281 13.691406 11.164062 13.492188 13.527344 13.464844 13.882812 13.4375 14.214844 13.417969 14.335938L13 18.9375C12.972656 19.089844 12.84375 19.199219 12.691406 19.199219L11.308594 19.199219C11.15625 19.199219 11.027344 19.089844 11.003906 18.972656L10.585938 14.332031C10.566406 14.242188 10.539062 13.90625 10.507812 13.550781 10.304688 11.164062 10.1875 10.484375 9.933594 10.234375 9.203125 9.511719 8.902344 8.480469 9.128906 7.480469 9.386719 6.332031 10.339844 5.429688 11.496094 5.242188 11.667969 5.214844 11.839844 5.199219 12.007812 5.199219 12.703125 5.199219 13.367188 5.441406 13.90625 5.898438 14.570312 6.460938 14.949219 7.28125 14.949219 8.148438 14.949219 8.9375 14.632812 9.679688 14.054688 10.242188zM5.199219 8.800781C3.4375 8.800781 2 10.234375 2 12 2 13.765625 3.4375 15.199219 5.199219 15.199219 6.964844 15.199219 8.398438 13.765625 8.398438 12 8.398438 10.234375 6.964844 8.800781 5.199219 8.800781zM5.199219 14.398438C3.875 14.398438 2.800781 13.324219 2.800781 12 2.800781 10.675781 3.875 9.601562 5.199219 9.601562 6.523438 9.601562 7.601562 10.675781 7.601562 12 7.601562 13.324219 6.523438 14.398438 5.199219 14.398438zM5.199219 14.398438"/>
    <path d="M5.71875 10.917969L5.199219 11.433594 4.683594 10.917969 4.117188 11.484375 4.632812 12 4.117188 12.515625 4.683594 13.082031 5.199219 12.566406 5.71875 13.082031 6.28125 12.515625 5.765625 12 6.28125 11.484375zM19.316406 10.917969L18.800781 11.433594 18.28125 10.917969 17.71875 11.484375 18.234375 12 17.71875 12.515625 18.28125 13.082031 18.800781 12.566406 19.316406 13.082031 19.882812 12.515625 19.367188 12 19.882812 11.484375zM19.316406 10.917969"/>
    <path d="M18.800781 8.800781C17.035156 8.800781 15.601562 10.234375 15.601562 12 15.601562 13.765625 17.035156 15.199219 18.800781 15.199219 20.5625 15.199219 22 13.765625 22 12 22 10.234375 20.5625 8.800781 18.800781 8.800781zM18.800781 14.398438C17.476562 14.398438 16.398438 13.324219 16.398438 12 16.398438 10.675781 17.476562 9.601562 18.800781 9.601562 20.125 9.601562 21.199219 10.675781 21.199219 12 21.199219 13.324219 20.125 14.398438 18.800781 14.398438zM12.164062 17.601562L12.648438 17.117188C12.734375 17.03125 12.78125 16.917969 12.78125 16.800781L12.769531 16.605469 12.164062 16 12.648438 15.515625C12.734375 15.433594 12.78125 15.316406 12.78125 15.199219L12.769531 15.003906 12.164062 14.398438 12.648438 13.914062C12.734375 13.832031 12.78125 13.71875 12.78125 13.601562L12.769531 13.40625 12.164062 12.800781 12.648438 12.316406C12.734375 12.234375 12.78125 12.117188 12.78125 12L12.769531 11.800781 12.722656 11.753906 12.398438 10.738281 12.398438 8C12.398438 7.777344 12.222656 7.601562 12 7.601562 11.777344 7.601562 11.601562 7.777344 11.601562 8L11.601562 10.800781 11.929688 11.90625 11.347656 12.488281C11.265625 12.570312 11.21875 12.683594 11.21875 12.800781L11.230469 12.996094 11.835938 13.601562 11.347656 14.085938C11.265625 14.167969 11.21875 14.28125 11.21875 14.398438L11.230469 14.59375 11.835938 15.199219 11.347656 15.6875C11.265625 15.769531 11.21875 15.882812 11.21875 16L11.230469 16.195312 11.835938 16.800781 11.347656 17.285156C11.265625 17.367188 11.21875 17.484375 11.21875 17.601562L11.230469 17.792969 12.117188 18.683594C12.195312 18.761719 12.296875 18.800781 12.398438 18.800781 12.503906 18.800781 12.605469 18.761719 12.683594 18.683594 12.839844 18.527344 12.839844 18.273438 12.683594 18.117188zM12.164062 17.601562"/>
    <path d="M 12 0 C 5.382812 0 0 5.382812 0 12 C 0 18.617188 5.382812 24 12 24 C 18.617188 24 24 18.617188 24 12 C 24 5.382812 18.617188 0 12 0 Z M 12 23.199219 C 5.824219 23.199219 0.800781 18.175781 0.800781 12 C 0.800781 5.824219 5.824219 0.800781 12 0.800781 C 18.175781 0.800781 23.199219 5.824219 23.199219 12 C 23.199219 18.175781 18.175781 23.199219 12 23.199219 Z M 12 23.199219"/>
</svg>

<svg xmlns="http://www.w3.org/2000/svg" width="32" height="32" viewBox="0 0 24 24">
    <path d="M14.426 5.29a3.747 3.747 0 0 0-6.078 2.016 3.726 3.726 0 0 0 1 3.471c.148.34.3 2.086.363 2.84.043.477.062.73.082.82l.418 4.641c.094.531.555.922 1.098.922h1.382c.543 0 1.004-.39 1.102-.957l.418-4.602c.02-.117.039-.37.078-.847.063-.742.207-2.465.356-2.809a3.708 3.708 0 0 0 1.105-2.637 3.753 3.753 0 0 0-1.324-2.859zm-.371 4.952c-.246.246-.364.922-.563 3.285a15.36 15.36 0 0 1-.074.809L13 18.937a.314.314 0 0 1-.309.262H11.31c-.153 0-.282-.11-.305-.226l-.418-4.641c-.02-.09-.047-.426-.078-.781-.203-2.387-.32-3.067-.574-3.317A2.936 2.936 0 0 1 12.008 5.2c.695 0 1.36.242 1.898.7a2.943 2.943 0 0 1 1.043 2.25 2.9 2.9 0 0 1-.894 2.093zm0 0M5.2 8.8A3.203 3.203 0 0 0 2 12c0 1.766 1.438 3.2 3.2 3.2A3.2 3.2 0 0 0 8.397 12 3.2 3.2 0 0 0 5.2 8.8zm0 5.598a2.399 2.399 0 0 1 0-4.796A2.402 2.402 0 0 1 7.601 12a2.402 2.402 0 0 1-2.403 2.398zm0 0"/>
    <path d="M5.719 10.918l-.52.516-.515-.516-.567.566.516.516-.516.516.567.566.515-.516.52.516.562-.566L5.766 12l.515-.516zm0 0M19.316 10.918l-.515.516-.52-.516-.562.566.515.516-.515.516.562.566.52-.516.515.516.567-.566-.516-.516.516-.516zm0 0"/>
    <path d="M18.8 8.8a3.2 3.2 0 0 0-3.198 3.2 3.2 3.2 0 0 0 3.199 3.2C20.563 15.2 22 13.765 22 12c0-1.766-1.438-3.2-3.2-3.2zm0 5.598A2.402 2.402 0 0 1 16.399 12a2.402 2.402 0 0 1 2.403-2.398 2.399 2.399 0 0 1 0 4.796zm0 0M12.164 17.602l.484-.485a.447.447 0 0 0 .133-.316l-.011-.196-.606-.605.484-.484a.44.44 0 0 0 .133-.317l-.011-.195-.606-.606.484-.484a.431.431 0 0 0 .133-.312l-.011-.196-.606-.605.484-.485a.44.44 0 0 0 .133-.316l-.011-.2-.047-.046-.325-1.016V8A.395.395 0 0 0 12 7.602a.395.395 0 0 0-.398.398v2.8l.328 1.106-.582.582a.444.444 0 0 0-.13.313l.012.195.606.606-.488.484a.444.444 0 0 0-.13.312l.012.196.606.605-.488.489a.444.444 0 0 0-.13.312l.012.195.606.606-.488.484a.453.453 0 0 0-.13.317l.012.191.887.89a.399.399 0 0 0 .566 0 .4.4 0 0 0 0-.566zm0 0"/>
    <path d="M12 0C5.383 0 0 5.383 0 12s5.383 12 12 12 12-5.383 12-12S18.617 0 12 0zm0 23.2C5.824 23.2.8 18.175.8 12 .8 5.824 5.825.8 12 .8 18.176.8 23.2 5.825 23.2 12c0 6.176-5.024 11.2-11.2 11.2zm0 0"/>
</svg>
